X: 304
T: Round The Horn
B: canberra pickers and fiddlers
B: tunes
M:4/4
L:1/8
R: reel
Q: 1/4=100
K:G
V:1 
|:(3DEF|\
"G"G2GA BAGA|"Bm"Bd2Bd2ed|"C"cdef ~g2g2|"A"(~a4 "D"a2)ga|
"G"b2g2agfa|"C"gfed "Em"BAGB|"A"A2d2 "Bm"BAG2|"Em"E6:|
|:z2|\
"C"e3ge2d2|"G"Bd2Bd2cB|"Bm"A2~A2"D"GFGA|"G"Bd2Bd2ef|
"C"g3a gf e2|"G"dedc BAGB|"A"A2d2"Bm"BAG2|"Em"E6:|]
% abcbook-tune_id 63da59346d81926587a60e34
% abcbook-tune_composer_id 
% abcbook-link-0 https://www.youtube.com/watch?v=T3ij29jyJvg
% abcbook-boost 0
% abcbook-difficulty 0
% abcbook-tags canberra pickers and fiddlers,old time tunes,© free
% abcbook-tablature 
% abcbook-transpose 
% abcbook-tuning GDAD
% abcbook-lastupdated 1729571240688
% abcbook-src-url https://tunebook.net/scrape/tunes.abc
% abcbook-soundfonts 
% abcbook-repeats 1
%%gchordfont "itim-music,Itim" 20

